img/svg_icons/tel.svg

<svg width="14" height="12" viewBox="0 0 14 12" fill="none" xmlns="http://www.w3.org/2000/svg">
<path fill-rule="evenodd" clip-rule="evenodd" d="M12.4608 8.3755C12.1424 8.21943 10.577 7.46511 10.2851 7.36109C9.99328 7.25706 9.78107 7.20502 9.5688 7.51716C9.35653 7.82929 8.74634 8.53157 8.56057 8.73968C8.37486 8.94773 8.18915 8.97381 7.87075 8.81768C7.55234 8.66167 6.52642 8.33239 5.31027 7.27013C4.36374 6.44345 3.72472 5.42232 3.53895 5.11019C3.35324 4.79805 3.51918 4.62933 3.67863 4.47386C3.8218 4.33422 3.99697 4.10975 4.15618 3.92766C4.31538 3.74557 4.36845 3.61552 4.47459 3.40747C4.58072 3.19936 4.52765 3.01727 4.44802 2.8612C4.36845 2.70514 3.7317 1.17048 3.46636 0.546207C3.20793 -0.0617556 2.94541 0.0205053 2.74997 0.0109721C2.56445 0.00191862 2.35199 0 2.13972 0C1.92745 0 1.58254 0.0780639 1.29063 0.39014C0.998791 0.702275 0.17627 1.45665 0.17627 2.99125C0.17627 4.52591 1.3172 6.00852 1.4764 6.21663C1.63561 6.42468 3.7216 9.57404 6.91559 10.9246C7.67525 11.2458 8.26836 11.4376 8.73073 11.5814C9.49351 11.8186 10.1876 11.7852 10.7362 11.7049C11.3479 11.6154 12.62 10.9506 12.8854 10.2223C13.1507 9.49399 13.1507 8.86972 13.0711 8.73968C12.9915 8.60963 12.7793 8.53157 12.4608 8.3755Z" fill="#DADADA"/>
</svg>

<svg width="14" height="12" fill="none" xmlns="http://www.w3.org/2000/svg"><path fill-rule="evenodd" clip-rule="evenodd" d="M12.46 8.376c-.318-.157-1.883-.91-2.175-1.015-.292-.104-.504-.156-.716.156-.212.312-.823 1.015-1.008 1.223-.186.208-.372.234-.69.078-.319-.156-1.345-.486-2.56-1.548-.947-.827-1.586-1.848-1.772-2.16-.186-.312-.02-.48.14-.636.143-.14.318-.364.477-.546.16-.182.212-.312.319-.52.106-.209.053-.39-.027-.547-.08-.156-.716-1.69-.982-2.315-.258-.608-.52-.525-.716-.535C2.564.001 2.352 0 2.14 0c-.213 0-.557.078-.85.39C1 .702.177 1.457.177 2.991c0 1.535 1.141 3.018 1.3 3.226.16.208 2.246 3.357 5.44 4.708.76.32 1.352.513 1.815.656.763.238 1.457.204 2.005.124.612-.09 1.884-.754 2.15-1.483.265-.728.265-1.352.185-1.482-.08-.13-.292-.208-.61-.364z" fill="#DADADA"/></svg>
